actions/16/window-new.svg

<?xml version="1.0" encoding="UTF-8" standalone="no"?>
<!-- Created with Inkscape (http://www.inkscape.org/) -->
<svg
   xmlns:dc="http://purl.org/dc/elements/1.1/"
   xmlns:cc="http://creativecommons.org/ns#"
   xmlns:rdf="http://www.w3.org/1999/02/22-rdf-syntax-ns#"
   xmlns:svg="http://www.w3.org/2000/svg"
   xmlns="http://www.w3.org/2000/svg"
   xmlns:xlink="http://www.w3.org/1999/xlink"
   xmlns:sodipodi="http://sodipodi.sourceforge.net/DTD/sodipodi-0.dtd"
   xmlns:inkscape="http://www.inkscape.org/namespaces/inkscape"
   width="16"
   height="16"
   id="svg5091"
   sodipodi:version="0.32"
   inkscape:version="0.46"
   version="1.0"
   sodipodi:docname="window-new.svg"
   inkscape:output_extension="org.inkscape.output.svg.inkscape">
  <defs
     id="defs5093">
    <linearGradient
       id="linearGradient2781">
      <stop
         style="stop-color:#d3d7cf;stop-opacity:1"
         offset="0"
         id="stop2783" />
      <stop
         style="stop-color:#eeeeec;stop-opacity:1"
         offset="1"
         id="stop2785" />
    </linearGradient>
    <linearGradient
       inkscape:collect="always"
       xlink:href="#linearGradient2781"
       id="linearGradient8235"
       gradientUnits="userSpaceOnUse"
       gradientTransform="matrix(0.4242325,0,0,0.4193581,-3.1059754,-3.0645453)"
       x1="24.925514"
       y1="40.000107"
       x2="24.925514"
       y2="19.53867" />
    <linearGradient
       id="linearGradient3674">
      <stop
         style="stop-color:#3465a4;stop-opacity:1"
         offset="0"
         id="stop3676" />
      <stop
         style="stop-color:#729fcf;stop-opacity:1;"
         offset="1"
         id="stop3678" />
    </linearGradient>
    <linearGradient
       inkscape:collect="always"
       xlink:href="#linearGradient3674"
       id="linearGradient8231"
       gradientUnits="userSpaceOnUse"
       gradientTransform="matrix(0.4242325,0,0,0.5424631,-3.1059754,-4.1109388)"
       x1="23.069359"
       y1="6.7993021"
       x2="23.069359"
       y2="12.403291" />
    <linearGradient
       id="linearGradient3690">
      <stop
         style="stop-color:white;stop-opacity:1;"
         offset="0"
         id="stop3692" />
      <stop
         style="stop-color:white;stop-opacity:0.46875"
         offset="1"
         id="stop3694" />
    </linearGradient>
    <linearGradient
       inkscape:collect="always"
       xlink:href="#linearGradient3690"
       id="linearGradient8228"
       gradientUnits="userSpaceOnUse"
       gradientTransform="matrix(0.3870967,0,0,0.3793103,-2.1774187,-2.10345)"
       x1="9.5"
       y1="16.26436"
       x2="9.5"
       y2="13.408723" />
    <linearGradient
       id="linearGradient3945">
      <stop
         id="stop3947"
         offset="0"
         style="stop-color:#ecf5b6;stop-opacity:1;" />
      <stop
         id="stop3949"
         offset="1"
         style="stop-color:#9fba48;stop-opacity:1;" />
    </linearGradient>
    <linearGradient
       inkscape:collect="always"
       xlink:href="#linearGradient3945"
       id="linearGradient7485"
       gradientUnits="userSpaceOnUse"
       gradientTransform="matrix(0.3280315,0,0,0.3257096,4.4449642,4.5320242)"
       x1="24.103895"
       y1="15.168831"
       x2="24.103895"
       y2="32.485161" />
  </defs>
  <sodipodi:namedview
     id="base"
     pagecolor="#ffffff"
     bordercolor="#666666"
     borderopacity="1.0"
     inkscape:pageopacity="0.0"
     inkscape:pageshadow="2"
     inkscape:zoom="11.197802"
     inkscape:cx="16"
     inkscape:cy="16"
     inkscape:current-layer="layer1"
     showgrid="true"
     inkscape:grid-bbox="true"
     inkscape:document-units="px"
     inkscape:window-width="640"
     inkscape:window-height="720"
     inkscape:window-x="800"
     inkscape:window-y="88" />
  <metadata
     id="metadata5096">
    <rdf:RDF>
      <cc:Work
         rdf:about="">
        <dc:format>image/svg+xml</dc:format>
        <dc:type
           rdf:resource="http://purl.org/dc/dcmitype/StillImage" />
      </cc:Work>
    </rdf:RDF>
  </metadata>
  <g
     id="layer1"
     inkscape:label="Layer 1"
     inkscape:groupmode="layer">
    <rect
       style="fill:url(#linearGradient8235);fill-opacity:1;stroke:#888a85;stroke-width:1.00000011999999994;stroke-miterlimit:4;stroke-dasharray:none;stroke-opacity:1"
       id="rect1887"
       width="13.999687"
       height="12.790415"
       x="0.5000006"
       y="0.70967782"
       rx="0.84846497"
       ry="0.83871621" />
    <path
       style="fill:url(#linearGradient8231);fill-opacity:1;stroke:#204a87;stroke-width:1;stroke-linecap:butt;stroke-miterlimit:4;stroke-dasharray:none;stroke-opacity:1"
       d="M 0.5000002,3 L 0.5000002,1.5849263 C 0.5000002,0.98387715 0.8784156,0.50000005 1.3484652,0.50000005 L 13.651207,0.50000005 C 14.121257,0.50000005 14.499672,0.98387715 14.499672,1.5849263 L 14.499672,3"
       id="rect2776"
       sodipodi:nodetypes="cccccc" />
    <rect
       style="opacity:0.80000000000000004;fill:none;fill-opacity:1;stroke:url(#linearGradient8228);stroke-width:1.00000072000000007;stroke-miterlimit:4;stroke-dasharray:none;stroke-opacity:1"
       id="rect2779"
       width="11.999999"
       height="11"
       x="1.5000004"
       y="1.5000004"
       rx="0.13090742"
       ry="0.12831382" />
    <path
       style="fill:url(#linearGradient7485);fill-opacity:1;fill-rule:evenodd;stroke:#699536;stroke-width:1.01506352000000000;stroke-linecap:butt;stroke-linejoin:round;stroke-miterlimit:4;stroke-dasharray:none;stroke-opacity:1;display:inline"
       d="M 10.5,10.499999 L 10.5,8.5075312 L 13.5,8.5075312 L 13.5,10.499999 L 15.492468,10.499999 L 15.492468,13.5 L 13.5,13.5 L 13.5,15.492468 L 10.5,15.492468 L 10.5,13.5 L 8.5075322,13.5 L 8.5075322,10.499999 L 10.5,10.499999 z"
       id="path6678"
       sodipodi:nodetypes="ccccccccccccc" />
  </g>
</svg>

<?xml version="1.0" encoding="UTF-8" standalone="no"?>
<!-- Created with Inkscape (http://www.inkscape.org/) -->

<svg
   xmlns:svg="http://www.w3.org/2000/svg"
   xmlns="http://www.w3.org/2000/svg"
   xmlns:xlink="http://www.w3.org/1999/xlink"
   version="1.0"
   width="16"
   height="16"
   id="svg5091">
  <defs
     id="defs5093">
    <linearGradient
       id="linearGradient2781">
      <stop
         id="stop2783"
         style="stop-color:#d3d7cf;stop-opacity:1"
         offset="0" />
      <stop
         id="stop2785"
         style="stop-color:#eeeeec;stop-opacity:1"
         offset="1" />
    </linearGradient>
    <linearGradient
       x1="24.925514"
       y1="40.000107"
       x2="24.925514"
       y2="19.53867"
       id="linearGradient8235"
       xlink:href="#linearGradient2781"
       gradientUnits="userSpaceOnUse"
       gradientTransform="matrix(0.4242325,0,0,0.4193581,-3.1059754,-3.0645453)" />
    <linearGradient
       id="linearGradient3674">
      <stop
         id="stop3676"
         style="stop-color:#3465a4;stop-opacity:1"
         offset="0" />
      <stop
         id="stop3678"
         style="stop-color:#729fcf;stop-opacity:1"
         offset="1" />
    </linearGradient>
    <linearGradient
       x1="23.069359"
       y1="6.7993021"
       x2="23.069359"
       y2="12.403291"
       id="linearGradient8231"
       xlink:href="#linearGradient3674"
       gradientUnits="userSpaceOnUse"
       gradientTransform="matrix(0.4242325,0,0,0.5424631,-3.1059754,-4.1109388)" />
    <linearGradient
       id="linearGradient3690">
      <stop
         id="stop3692"
         style="stop-color:white;stop-opacity:1"
         offset="0" />
      <stop
         id="stop3694"
         style="stop-color:white;stop-opacity:0.46875"
         offset="1" />
    </linearGradient>
    <linearGradient
       x1="9.5"
       y1="16.26436"
       x2="9.5"
       y2="13.408723"
       id="linearGradient8228"
       xlink:href="#linearGradient3690"
       gradientUnits="userSpaceOnUse"
       gradientTransform="matrix(0.3870967,0,0,0.3793103,-2.1774187,-2.10345)" />
    <linearGradient
       id="linearGradient3945">
      <stop
         id="stop3947"
         style="stop-color:#ecf5b6;stop-opacity:1"
         offset="0" />
      <stop
         id="stop3949"
         style="stop-color:#9fba48;stop-opacity:1"
         offset="1" />
    </linearGradient>
    <linearGradient
       x1="24.103895"
       y1="15.168831"
       x2="24.103895"
       y2="32.485161"
       id="linearGradient7485"
       xlink:href="#linearGradient3945"
       gradientUnits="userSpaceOnUse"
       gradientTransform="matrix(0.3280315,0,0,0.3257096,4.4449642,4.5320242)" />
  </defs>
  <g
     id="layer1">
    <rect
       width="13.999687"
       height="12.790415"
       rx="0.84846497"
       ry="0.83871621"
       x="0.5000006"
       y="0.70967782"
       id="rect1887"
       style="fill:url(#linearGradient8235);fill-opacity:1;stroke:#888a85;stroke-width:1.00000012;stroke-miterlimit:4;stroke-opacity:1;stroke-dasharray:none" />
    <path
       d="m 0.5000002,3 0,-1.4150737 c 0,-0.60104915 0.3784154,-1.08492625 0.848465,-1.08492625 l 12.3027418,0 c 0.47005,0 0.848465,0.4838771 0.848465,1.08492625 l 0,1.4150737"
       id="rect2776"
       style="fill:url(#linearGradient8231);fill-opacity:1;stroke:#204a87;stroke-width:1;stroke-linecap:butt;stroke-miterlimit:4;stroke-opacity:1;stroke-dasharray:none" />
    <rect
       width="11.999999"
       height="11"
       rx="0.13090742"
       ry="0.12831382"
       x="1.5000004"
       y="1.5000004"
       id="rect2779"
       style="opacity:0.8;fill:none;stroke:url(#linearGradient8228);stroke-width:1.00000072;stroke-miterlimit:4;stroke-opacity:1;stroke-dasharray:none" />
    <path
       d="m 10.5,10.499999 0,-1.9924678 3,0 0,1.9924678 1.992468,0 0,3.000001 -1.992468,0 0,1.992468 -3,0 0,-1.992468 -1.9924678,0 0,-3.000001 1.9924678,0 z"
       id="path6678"
       style="fill:url(#linearGradient7485);fill-opacity:1;fill-rule:evenodd;stroke:#699536;stroke-width:1.01506352;stroke-linecap:butt;stroke-linejoin:round;stroke-miterlimit:4;stroke-opacity:1;stroke-dasharray:none;display:inline" />
  </g>
</svg>
